emblems/scalable/emblem-noread.svg

<svg viewBox="0 0 24 24" xmlns="http://www.w3.org/2000/svg"><path d="m12 1a11 11 0 0 0 -11 11 11 11 0 0 0 11 11 11 11 0 0 0 11-11 11 11 0 0 0 -11-11zm-3.745443 5.5c1.276762 1.205949 2.497691 2.470398 3.745443 3.706056 1.247741-1.235722 2.468694-2.499994 3.745444-3.706056l1.754556 1.754558c-1.205999 1.276811-2.470372 2.497665-3.706054 3.745442 1.235719 1.247741 2.499993 2.468694 3.706054 3.745444l-1.754556 1.754556c-1.276813-1.205999-2.497666-2.470372-3.745444-3.706054-1.247739 1.23572-2.468693 2.499992-3.745443 3.706054l-1.754557-1.754556c1.206-1.276813 2.470373-2.497666 3.706056-3.745444-1.235721-1.247739-2.499994-2.468693-3.706056-3.745442z" fill="#4d4d4d"/><path d="m8.254557 6.5c1.276762 1.205949 2.497691 2.470398 3.745443 3.706056 1.247741-1.235722 2.468694-2.499994 3.745444-3.706056l1.754556 1.754558c-1.205999 1.276811-2.470372 2.497665-3.706054 3.745442 1.235719 1.247741 2.499993 2.468694 3.706054 3.745444l-1.754556 1.754556c-1.276813-1.205999-2.497666-2.470372-3.745444-3.706054-1.247739 1.23572-2.468693 2.499992-3.745443 3.706054l-1.754557-1.754556c1.206-1.276813 2.470373-2.497666 3.706056-3.745444-1.235721-1.247739-2.499994-2.468693-3.706056-3.745442z" fill="#fff"/></svg>

<?xml version="1.0" encoding="UTF-8" standalone="no"?>
<svg
   xmlns:dc="http://purl.org/dc/elements/1.1/"
   xmlns:cc="http://creativecommons.org/ns#"
   xmlns:rdf="http://www.w3.org/1999/02/22-rdf-syntax-ns#"
   xmlns:svg="http://www.w3.org/2000/svg"
   xmlns="http://www.w3.org/2000/svg"
   xmlns:sodipodi="http://sodipodi.sourceforge.net/DTD/sodipodi-0.dtd"
   xmlns:inkscape="http://www.inkscape.org/namespaces/inkscape"
   viewBox="0 0 24 24"
   id="svg2"
   version="1.1"
   inkscape:version="0.91 r13725"
   sodipodi:docname="emblem-noread.svg">
  <metadata
     id="metadata12">
    <rdf:RDF>
      <cc:Work
         rdf:about="">
        <dc:format>image/svg+xml</dc:format>
        <dc:type
           rdf:resource="http://purl.org/dc/dcmitype/StillImage" />
      </cc:Work>
    </rdf:RDF>
  </metadata>
  <defs
     id="defs10" />
  <sodipodi:namedview
     pagecolor="#ffffff"
     bordercolor="#666666"
     borderopacity="1"
     objecttolerance="10"
     gridtolerance="10"
     guidetolerance="10"
     inkscape:pageopacity="0"
     inkscape:pageshadow="2"
     inkscape:window-width="2560"
     inkscape:window-height="1381"
     id="namedview8"
     showgrid="false"
     inkscape:zoom="9.8333333"
     inkscape:cx="-10.779661"
     inkscape:cy="12"
     inkscape:window-x="0"
     inkscape:window-y="30"
     inkscape:window-maximized="1"
     inkscape:current-layer="svg2" />
  <path
     style="opacity:1;fill:#4d4d4d;fill-opacity:1;stroke:none"
     d="M 12,1 A 11,11 0 0 0 1,12 11,11 0 0 0 12,23 11,11 0 0 0 23,12 11,11 0 0 0 12,1 Z M 8.254557,6.5 C 9.531319,7.705949 10.752248,8.970398 12,10.206056 13.247741,8.970334 14.468694,7.706062 15.745444,6.5 L 17.5,8.254558 C 16.294001,9.531369 15.029628,10.752223 13.793946,12 15.029665,13.247741 16.293939,14.468694 17.5,15.745444 L 15.745444,17.5 C 14.468631,16.294001 13.247778,15.029628 12,13.793946 10.752261,15.029666 9.531307,16.293938 8.254557,17.5 L 6.5,15.745444 C 7.706,14.468631 8.970373,13.247778 10.206056,12 8.970335,10.752261 7.706062,9.531307 6.5,8.254558 L 8.254557,6.5 Z"
     id="path4"
     inkscape:connector-curvature="0" />
  <path
     d="M 8.254557,6.5 C 9.531319,7.705949 10.752248,8.970398 12,10.206056 13.247741,8.970334 14.468694,7.706062 15.745444,6.5 L 17.5,8.254558 C 16.294001,9.531369 15.029628,10.752223 13.793946,12 15.029665,13.247741 16.293939,14.468694 17.5,15.745444 L 15.745444,17.5 C 14.468631,16.294001 13.247778,15.029628 12,13.793946 10.752261,15.029666 9.531307,16.293938 8.254557,17.5 L 6.5,15.745444 C 7.706,14.468631 8.970373,13.247778 10.206056,12 8.970335,10.752261 7.706062,9.531307 6.5,8.254558 Z"
     style="fill:#ffffff"
     id="path6"
     inkscape:connector-curvature="0" />
</svg>
